Assets/Textures/industrial_Look.cube
#Generated by: Picture Instruments - Image2LUT
TITLE "industrial_Look"
LUT_3D_SIZE 5
0.0078 0.0078 0.0078
0.0745 0.0392 0.0392
0.2902 0.1490 0.1490
0.4980 0.2510 0.2510
0.6706 0.3373 0.3373
0.1216 0.2353 0.1216
0.1608 0.2235 0.1176
0.3098 0.2549 0.1569
0.5098 0.3490 0.2588
0.6706 0.4196 0.3373
0.2235 0.4431 0.2235
0.2627 0.4118 0.2078
0.3647 0.3922 0.2078
0.5255 0.4392 0.2667
0.6706 0.4941 0.3373
0.2941 0.5804 0.2941
0.3451 0.5529 0.2784
0.4353 0.5216 0.2627
0.5333 0.5137 0.2706
0.6706 0.5804 0.3373
0.3373 0.6706 0.3373
0.4157 0.6706 0.3373
0.5137 0.6706 0.3373
0.6039 0.6706 0.3373
0.6706 0.6706 0.3373
0.1294 0.1294 0.2471
0.1765 0.1333 0.2275
0.3176 0.1686 0.2392
0.5098 0.2588 0.3059
0.6706 0.3373 0.3647
0.1294 0.2353 0.2235
0.1882 0.2314 0.2078
0.3725 0.3020 0.2627
0.5412 0.3647 0.3098
0.6706 0.4078 0.3373
0.2078 0.4118 0.2824
0.2667 0.3882 0.2510
0.3804 0.3882 0.2392
0.5333 0.4275 0.2706
0.6706 0.4902 0.3373
0.2784 0.5529 0.3255
0.3451 0.5255 0.2941
0.4275 0.4941 0.2510
0.5333 0.5137 0.2706
0.6706 0.5804 0.3373
0.3373 0.6706 0.3647
0.4235 0.6706 0.3373
0.5137 0.6706 0.3373
0.6039 0.6706 0.3373
0.6706 0.6706 0.3373
0.2353 0.2353 0.4627
0.2588 0.2039 0.4000
0.3804 0.2235 0.3882
0.5333 0.2745 0.4118
0.6706 0.3373 0.4392
0.2039 0.3020 0.4000
0.2902 0.3137 0.3922
0.4471 0.3608 0.4157
0.6039 0.4118 0.4431
0.7333 0.4706 0.5059
0.2078 0.3961 0.3725
0.3412 0.4353 0.3961
0.4588 0.4431 0.3882
0.6392 0.5255 0.4745
0.7725 0.5922 0.5451
0.2627 0.5216 0.4000
0.4235 0.5843 0.4392
0.5294 0.5961 0.4549
0.6392 0.6157 0.4745
0.7725 0.6824 0.5451
0.3373 0.6706 0.4392
0.5137 0.7569 0.5294
0.6157 0.7725 0.5451
0.7020 0.7725 0.5451
0.7725 0.7725 0.5451
0.2824 0.2824 0.5529
0.3294 0.2627 0.5176
0.4118 0.2431 0.4784
0.5333 0.2706 0.4863
0.6706 0.3373 0.5569
0.2627 0.3490 0.5176
0.3804 0.3843 0.5412
0.4706 0.3647 0.5098
0.6000 0.4039 0.5529
0.7294 0.4627 0.6157
0.2431 0.4157 0.4784
0.3961 0.4667 0.5294
0.5529 0.5333 0.5961
0.6863 0.5725 0.6392
0.8196 0.6353 0.7020
0.2510 0.4941 0.4667
0.4235 0.5804 0.5529
0.6000 0.6667 0.6392
0.7490 0.7255 0.7020
0.8863 0.7922 0.7725
0.3373 0.6706 0.5569
0.5137 0.7569 0.6431
0.6902 0.8431 0.7294
0.8196 0.8863 0.7725
0.8863 0.8863 0.7725
0.3373 0.3373 0.6706
0.4157 0.3373 0.6706
0.5137 0.3373 0.6706
0.6039 0.3373 0.6706
0.6706 0.3373 0.6706
0.3373 0.4196 0.6706
0.4941 0.4784 0.7373
0.5804 0.4706 0.7333
0.6627 0.4627 0.7294
0.7255 0.4549 0.7255
0.3373 0.4941 0.6706
0.5137 0.5804 0.7569
0.6627 0.6431 0.8196
0.7490 0.6353 0.8196
0.8157 0.6314 0.8157
0.3373 0.5804 0.6706
0.5137 0.6667 0.7569
0.6902 0.7529 0.8431
0.8392 0.8157 0.9098
0.9059 0.8118 0.9059
0.3373 0.6706 0.6706
0.5137 0.7569 0.7569
0.6902 0.8431 0.8431
0.8667 0.9333 0.9333
1.0000 1.0000 1.0000
